public/globe.svg

<svg width="20" height="20" viewBox="0 0 20 20" fill="none" xmlns="http://www.w3.org/2000/svg">
<g id="globe-03.3 1">
<path id="Vector" fill-rule="evenodd" clip-rule="evenodd" d="M18.8919 9.99996C18.8919 5.19087 14.9936 1.29226 10.1847 1.29163H10.1817C5.3731 1.2926 1.47522 5.19108 1.47522 9.99996C1.47522 14.8094 5.37407 18.7083 10.1836 18.7083C14.993 18.7083 18.8919 14.8094 18.8919 9.99996ZM3.4064 7.79469C4.10918 5.63344 5.81704 3.92559 7.97828 3.22281C7.55733 3.85652 7.23242 4.55558 6.98402 5.27676C6.85096 5.66307 6.73851 6.0594 6.6443 6.4607C6.24299 6.55492 5.84666 6.66737 5.46035 6.80042C4.73917 7.04882 4.04012 7.37374 3.4064 7.79469ZM3.4064 12.2052C4.10918 14.3665 5.81704 16.0743 7.97829 16.7771C7.55733 16.1434 7.23243 15.4443 6.98402 14.7232C6.85096 14.3369 6.73851 13.9405 6.6443 13.5392C6.24299 13.445 5.84666 13.3326 5.46035 13.1995C4.73917 12.9511 4.04012 12.6262 3.4064 12.2052ZM8.36144 13.8363C8.3991 13.9615 8.43894 14.0853 8.48104 14.2075C8.86369 15.3185 9.41857 16.2574 10.1836 16.9225C10.9485 16.2574 11.5034 15.3185 11.886 14.2075C11.9281 14.0853 11.968 13.9615 12.0057 13.8363C11.393 13.9081 10.7853 13.9459 10.2 13.9581C10.189 13.9584 10.1781 13.9584 10.1671 13.9581C9.58181 13.9459 8.97412 13.9081 8.36144 13.8363ZM12.3725 12.1889C11.6456 12.3015 10.9044 12.3591 10.1836 12.3748C9.46274 12.3591 8.7215 12.3015 7.99461 12.1889C7.88199 11.462 7.82439 10.7208 7.80873 9.99996C7.82439 9.27915 7.88199 8.53791 7.99461 7.81102C8.7215 7.69839 9.46274 7.64078 10.1836 7.62514C10.9044 7.64078 11.6456 7.69839 12.3725 7.81102C12.4851 8.53791 12.5427 9.27915 12.5584 9.99996C12.5427 10.7208 12.4851 11.462 12.3725 12.1889ZM13.7228 13.5392C13.6286 13.9405 13.5162 14.3369 13.3831 14.7231C13.1346 15.4443 12.8097 16.1434 12.3888 16.7771C14.5501 16.0743 16.2579 14.3665 16.9607 12.2052C16.327 12.6262 15.6279 12.9511 14.9068 13.1995C14.5205 13.3326 14.1242 13.445 13.7228 13.5392ZM16.9607 7.79469C16.2579 5.63344 14.5501 3.9256 12.3888 3.22281C12.8097 3.85652 13.1346 4.55558 13.3831 5.27676C13.5162 5.66307 13.6286 6.0594 13.7228 6.4607C14.1242 6.55492 14.5205 6.66737 14.9068 6.80042C15.6279 7.04882 16.327 7.37374 16.9607 7.79469ZM14.0199 8.17785C14.1451 8.21551 14.2689 8.25535 14.3911 8.29744C15.502 8.68009 16.441 9.23497 17.106 9.99996C16.441 10.7649 15.502 11.3198 14.3911 11.7024C14.2689 11.7446 14.1451 11.7844 14.0199 11.8221C14.0917 11.2094 14.1295 10.6017 14.1417 10.0164C14.142 10.0054 14.142 9.9945 14.1417 9.98349C14.1295 9.39821 14.0917 8.79053 14.0199 8.17785ZM12.0057 6.16364C11.968 6.03844 11.9281 5.91462 11.886 5.79239C11.5034 4.68146 10.9485 3.74252 10.1836 3.07749C9.41857 3.74252 8.86369 4.68146 8.48103 5.79239C8.43894 5.91462 8.3991 6.03844 8.36144 6.16364C8.97412 6.09185 9.58181 6.05399 10.1671 6.0418C10.1781 6.04157 10.189 6.04157 10.2 6.0418C10.7853 6.05399 11.393 6.09185 12.0057 6.16364ZM6.34723 8.17785C6.27544 8.79053 6.23759 9.39821 6.22539 9.98349C6.22516 9.9945 6.22516 10.0054 6.22539 10.0164C6.23759 10.6017 6.27544 11.2094 6.34723 11.8221C6.22203 11.7844 6.09821 11.7446 5.97599 11.7024C4.86506 11.3198 3.92612 10.7649 3.26109 9.99996C3.92612 9.23497 4.86506 8.68009 5.97599 8.29744C6.09821 8.25534 6.22203 8.2155 6.34723 8.17785Z" fill="white"/>
</g>
</svg>

<svg xmlns="http://www.w3.org/2000/svg" width="20" height="20" fill="none"><path fill="#fff" fill-rule="evenodd" d="M18.892 10a8.708 8.708 0 0 0-8.707-8.708h-.003A8.708 8.708 0 1 0 18.892 10ZM3.406 7.795a7.143 7.143 0 0 1 4.572-4.572 9.01 9.01 0 0 0-.994 2.054 12.2 12.2 0 0 0-.34 1.184c-.401.094-.797.206-1.184.34a9.01 9.01 0 0 0-2.054.994Zm0 4.41a7.143 7.143 0 0 0 4.572 4.572 9.011 9.011 0 0 1-.994-2.054 12.2 12.2 0 0 1-.34-1.184 12.185 12.185 0 0 1-1.184-.34 9.008 9.008 0 0 1-2.054-.994Zm4.955 1.631c.038.125.078.25.12.371.383 1.111.938 2.05 1.703 2.715.764-.665 1.32-1.604 1.702-2.715.042-.122.082-.246.12-.37a18.956 18.956 0 0 1-1.839.121 18.955 18.955 0 0 1-1.806-.122Zm4.011-1.647c-.726.113-1.468.17-2.188.186a16.768 16.768 0 0 1-2.19-.186A16.757 16.757 0 0 1 7.81 10c.015-.72.073-1.462.186-2.189.727-.113 1.468-.17 2.189-.186.72.016 1.462.073 2.189.186.112.727.17 1.468.185 2.189-.015.72-.073 1.462-.185 2.189Zm1.35 1.35c-.093.402-.206.798-.339 1.184a9.016 9.016 0 0 1-.994 2.054 7.143 7.143 0 0 0 4.572-4.572 9.01 9.01 0 0 1-2.054.995c-.386.133-.783.245-1.184.34Zm3.239-5.744a7.143 7.143 0 0 0-4.572-4.572c.42.634.746 1.333.994 2.054.133.386.246.782.34 1.184.401.094.797.206 1.184.34.72.248 1.42.573 2.054.994Zm-2.941.383c.125.038.249.077.371.12 1.111.382 2.05.937 2.715 1.702-.665.765-1.604 1.32-2.715 1.702a9.745 9.745 0 0 1-.371.12 18.956 18.956 0 0 0 .122-1.839 18.954 18.954 0 0 0-.122-1.805Zm-2.014-2.014a9.947 9.947 0 0 0-.12-.372c-.383-1.11-.938-2.05-1.702-2.715-.765.666-1.32 1.604-1.703 2.715a9.891 9.891 0 0 0-.12.372 18.955 18.955 0 0 1 1.839-.122c.585.012 1.193.05 1.806.122ZM6.347 8.178a18.958 18.958 0 0 0-.122 1.838c.013.586.05 1.193.122 1.806a9.759 9.759 0 0 1-.371-.12c-1.11-.382-2.05-.937-2.715-1.702.665-.765 1.604-1.32 2.715-1.703.122-.042.246-.082.371-.12Z" clip-rule="evenodd"/></svg>
